X: 3312
T: Bell, The
R: reel
M: 4/4
K: Adorian
A2 AG EGAG|EGAB cdec|A2 AG EGAG|Addc B/c/B A2|
EGAG EGAG|EGAB cdec|A2 AG EGAG|Addc B/c/B A=f||
edcd ed d/d/d|edcd efgf|edcd edcd|eaag egdg|
edcd ed d/d/d|edcd efgf|eaag egge|eaag e2 z2||

